icons/lines/designtools.svg

<svg xmlns="http://www.w3.org/2000/svg" width="24" height="24" viewBox="0 0 24 24" fill="none" stroke="currentColor" stroke-width="2" stroke-linecap="round" stroke-linejoin="round" >
  <g clip-path="url(#clip0_40_2670)">
  <path d="M21.81 3.94C20.27 7.78 16.41 13 13.18 15.59L11.21 17.17C10.96 17.35 10.71 17.51 10.43 17.62C10.43 17.44 10.42 17.24 10.39 17.05C10.28 16.21 9.90002 15.43 9.23002 14.76C8.55002 14.08 7.72002 13.68 6.87002 13.57C6.67002 13.56 6.47002 13.54 6.27002 13.56C6.38002 13.25 6.55002 12.96 6.76002 12.72L8.32002 10.75C10.9 7.52 16.14 3.64 19.97 2.11C20.56 1.89 21.13 2.05 21.49 2.42C21.87 2.79 22.05 3.36 21.81 3.94Z"/>
  <path d="M10.4298 17.62C10.4298 18.72 10.0098 19.77 9.21979 20.57C8.60979 21.18 7.77979 21.6 6.78979 21.73L4.32979 22C2.98979 22.15 1.83979 21.01 1.99979 19.65L2.26979 17.19C2.50979 15 4.33979 13.6 6.27979 13.56C6.47979 13.55 6.68979 13.56 6.87979 13.57C7.72979 13.68 8.55979 14.07 9.23979 14.76C9.90979 15.43 10.2898 16.21 10.3998 17.05C10.4098 17.24 10.4298 17.43 10.4298 17.62Z"/>
  <path d="M14.2398 14.47C14.2398 11.86 12.1198 9.73999 9.50977 9.73999"/>
  <path d="M20.1202 12.73L20.8602 13.46C22.3502 14.95 22.3502 16.42 20.8602 17.91L17.9002 20.87C16.4302 22.34 14.9402 22.34 13.4702 20.87"/>
  <path d="M3.10982 10.51C1.63982 9.02 1.63982 7.55 3.10982 6.06L6.06982 3.1C7.53982 1.63 9.02982 1.63 10.4998 3.1L11.2398 3.84"/>
  <path d="M11.2498 3.84998L7.5498 7.54998"/>
  <path d="M20.1202 12.73L17.1602 15.68"/>
  </g>
  <defs>
  <clipPath id="clip0_40_2670">
  <rect width="24" height="24"/>
  </clipPath>
  </defs>
  </svg>

<svg xmlns="http://www.w3.org/2000/svg" width="24" height="24" viewBox="0 0 24 24" fill="none" stroke="currentColor" stroke-width="2" stroke-linecap="round" stroke-linejoin="round">
  <path d="M10.43 17.62a4.17 4.17 0 0 1-1.21 2.95c-.61.61-1.44 1.03-2.43 1.16L4.33 22A2.114 2.114 0 0 1 2 19.65l.27-2.46c.24-2.19 2.07-3.59 4.01-3.63a6 6 0 0 1 .6.01 4 4 0 0 1 2.36 1.19c.67.67 1.05 1.45 1.16 2.29a11 11 0 0 1 .03.57" />
  <path d="m11.25 3.85-3.7 3.7" />
  <path d="M13.47 20.87c1.47 1.47 2.96 1.47 4.43 0l2.96-2.96c1.49-1.49 1.49-2.96 0-4.45l-.74-.73-2.96 2.95" />
  <path d="M14.24 14.47a4.733 4.733 0 0 0-4.73-4.73" />
  <path d="M21.81 3.94c-1.54 3.84-5.4 9.06-8.63 11.65l-1.97 1.58a3.6 3.6 0 0 1-.78.45 4 4 0 0 0-.04-.57c-.11-.84-.49-1.62-1.16-2.29-.68-.68-1.51-1.08-2.36-1.19a4 4 0 0 0-.6-.01 2.6 2.6 0 0 1 .49-.84l1.56-1.97c2.58-3.23 7.82-7.11 11.65-8.64.59-.22 1.16-.06 1.52.31a1.36 1.36 0 0 1 .32 1.52" />
  <path d="M3.11 10.51c-1.47-1.49-1.47-2.96 0-4.45L6.07 3.1c1.47-1.47 2.96-1.47 4.43 0l.74.74" />
</svg>
